dist/svg/static/traffic-sign-recognition-alert-large.svg

<svg xmlns="http://www.w3.org/2000/svg" width="48" height="48" viewBox="0 0 48 48"><g fill="none" stroke="currentColor"><path stroke-miterlimit="10" d="M35.9 27l8.6 15.5h-42l21-38 4.7 8.6M17 28.5h2.151"/><path stroke-miterlimit="10" d="M16.7 31.4s.7.2 1.5.4c.7.2 1 .4 1.1 1.1.2.9.4 1.2-.8 1-1.3-.2-2-.5-2-.5M34 28.5h-1.968M34.28 31.402s-.68.198-1.48.398c-.7.2-1 .4-1.1 1.1-.2.9-.4 1.2.8 1 1.3-.2 2-.5 2-.5"/><path stroke-miterlimit="10" d="M34 30.7l-1.1-.9s-.6-.6-1.2-2c-.5-1.1-1.5-1.3-2.5-1.3H22c-.9 0-1.9.2-2.5 1.3-.6 1.3-1.2 2-1.2 2l-1.3.9s-.5.3-.5 3.3v3.7c0 .4.4.8.8.8h2.2v-1h12v1h2.2c.4 0 .8-.3.8-.8V34c0-2.9-.5-3.3-.5-3.3z"/><path stroke-miterlimit="10" d="M23 23.5h-4.1c-.9 0-1.9.3-2.5 1.4-.6 1.3-1.2 2-1.2 2l-1.2.8s-.5.3-.5 3.3v3.7c0 .4.4.8.8.8h.7M22.5 33.5h6.1l1.1.7-1.1 1.3h-6.1l-1.2-1.3zM32.645 29.5H18.518"/><path stroke-linejoin="round" d="M36.5 11v6M36.5 19v2"/><path stroke-miterlimit="10" d="M46.5 23.5h-20l10-18z"/></g></svg>

<?xml version="1.0" encoding="UTF-8" standalone="no"?>
<svg width="48px" height="48px" viewBox="0 0 48 48" version="1.1" xmlns="http://www.w3.org/2000/svg" xmlns:xlink="http://www.w3.org/1999/xlink">
    <!-- Generator: sketchtool 46.2 (44496) - http://www.bohemiancoding.com/sketch -->
    <title>traffic-sign-recognition-alert-large</title>
    <desc>Created with sketchtool.</desc>
    <defs></defs>
    <g id="icons-published" stroke="none" stroke-width="1" fill="none" fill-rule="evenodd">
        <g id="briefing" transform="translate(-576.000000, -2202.000000)"></g>
        <g id="traffic-sign-recognition-alert-large" stroke="#000000">
            <path d="M35.9,27 L44.5,42.5 L2.5,42.5 L23.5,4.5 L28.2,13.1 M17,28.5 L19.2,28.5" id="Shape"></path>
            <path d="M16.7,31.4 C16.7,31.4 17.4,31.6 18.2,31.8 C18.9,32 19.2,32.2 19.3,32.9 C19.5,33.8 19.7,34.1 18.5,33.9 C17.2,33.7 16.5,33.4 16.5,33.4 M34,28.5 L32,28.5 M34.3,31.4 C34.3,31.4 33.6,31.6 32.8,31.8 C32.1,32 31.8,32.2 31.7,32.9 C31.5,33.8 31.3,34.1 32.5,33.9 C33.8,33.7 34.5,33.4 34.5,33.4" id="Shape"></path>
            <path d="M34,30.7 L32.9,29.8 C32.9,29.8 32.3,29.2 31.7,27.8 C31.2,26.7 30.2,26.5 29.2,26.5 L22,26.5 C21.1,26.5 20.1,26.7 19.5,27.8 C18.9,29.1 18.3,29.8 18.3,29.8 L17,30.7 C17,30.7 16.5,31 16.5,34 L16.5,37.7 C16.5,38.1 16.9,38.5 17.3,38.5 L19.5,38.5 L19.5,37.5 L31.5,37.5 L31.5,38.5 L33.7,38.5 C34.1,38.5 34.5,38.2 34.5,37.7 L34.5,34 C34.5,31.1 34,30.7 34,30.7 Z" id="Shape"></path>
            <path d="M22.5,33.5 L28.6,33.5 L29.7,34.2 L28.6,35.5 L22.5,35.5 L21.3,34.2 L22.5,33.5 Z M32.6,29.5 L18.5,29.5 L32.6,29.5 Z" id="Shape"></path>
            <path d="M23,23.5 L18.9,23.5 C18,23.5 17,23.8 16.4,24.9 C15.8,26.2 15.2,26.9 15.2,26.9 L14,27.7 C14,27.7 13.5,28 13.5,31 L13.5,34.7 C13.5,35.1 13.9,35.5 14.3,35.5 L15,35.5" id="Path"></path>
            <path d="M36.5,11 L36.5,17 M36.5,19 L36.5,21" id="Shape" stroke-linejoin="round"></path>
            <polygon id="Shape" points="46.5 23.5 26.5 23.5 36.5 5.5"></polygon>
        </g>
    </g>
</svg>
